icons/chart-calculator-2-filled.svg

<svg fill="none" viewBox="0 0 24 24"><path stroke="currentColor" stroke-linecap="round" stroke-linejoin="round" stroke-width="2" d="m6.4 17.6 11.2-11.2m-9.4 4.4v-2.6m0 0v-2.4m0 2.5h-2.4m2.5 0h2.4m2.6 8h5m-13.6 5.7h14.6a2.7 2.7 0 0 0 2.7-2.7v-14.6a2.7 2.7 0 0 0-2.7-2.7h-14.6a2.7 2.7 0 0 0-2.7 2.7v14.6a2.7 2.7 0 0 0 2.7 2.7Z"/></svg>

<svg fill="none" viewBox="0 0 24 24"><path stroke="currentColor" stroke-linecap="round" stroke-linejoin="round" stroke-width="2" d="M6.4 17.6 17.6 6.4m-9.4 4.4V8.2m0 0V5.9m0 2.5H5.9m2.5 0h2.4m2.6 8h5M4.7 22h14.6a2.7 2.7 0 0 0 2.7-2.7V4.7A2.7 2.7 0 0 0 19.3 2H4.7A2.7 2.7 0 0 0 2 4.7v14.6A2.7 2.7 0 0 0 4.7 22"/></svg>
